X:89
T:Turnpike Gate,The. JBs.089
S:Jas.Blackshaw MS, 1837, N.Shropshire
A:North Shropshire
Z:T. Weatherall 2006
M:6/8
L:1/8
Q:3/8=120
R:Jig
K:F
fgfa2f|b2gcâ€™2a|fgf a2g|d2fe2c|!
fgf a2f|b2gcâ€™2a|fgf a2g|d2ef2z:|!
|:câ€™af g2b|a2câ€™b2g|bgfg2a|d2fe2c|!
câ€™afg2câ€™|a2câ€™b2g|câ€™af g2a|d2ef2z:|

